X: 1535
T: Henry Waltz
B: australian traditional tunes wiki
M:3/4
L:1/8
R: Waltz
Q: 1/4=100
K:D
V:1 
|:"D"[F6A6]|"G"[G6B6]|"D"[F4A4][FA][EG]|[D6F6]|[F4A4]d2|"G"[G4B4]d2|"A7"[A6^c6]-|[A4c4][G2d2]|
[A6e6]|"D"[d6F6]|"A7"c2[A2c2][A2=c2]|"G/Em"[G6B6]|"D"A2F2A2|"A7"G2E2C2|"D"[D6F6]-|[D6F6]:|
|:"D"a2ba ga|[d3f3][df][d2f2]|a2ba ga|"A"[c3e3][ce][c2e2]|
a2ba ga|"A7"c'3=c'b2|1 (3aba g2eg|"D"f6:|2"D"a2"A7"g2ce|"D"d6||
% abcbook-tune_id 6342d53afa91db63b4056a60


% abcbook-boost 0
% abcbook-tablature 
% abcbook-transpose 
% abcbook-lastupdated 1665324369849
% abcbook-soundfonts 
% abcbook-repeats 1
% NFF Book 2006

